X: 19011
T: Johnny in the Nether Mains
C: Niel Gow
B: RSCDS 19-1(I)
Z: John Chambers <jc:trillian.mit.edu>
R: reel, march
B: Carlin #260 (M:C)
B: Hunter p.321 (M:2/4)
M: C|
L: 1/8
%--------------------
K: F
C2 \
| "F"{E}F4 F2Ac | dcAc "(Bb)"d2f2 | "F"c2A2 "Dm"{B}A2GF | "Gm"A2G2 "C7"F2D2 |
y2 \
| "F"{E}F4 F2Ac | dcAc "(Bb)"d2e2 | "F"f3g "Bb"fgab | "C7"a2g2 "F"f2 |]
c2 \
| "F"f3g fedc | "(Bb)"d2c2 "F"A4 | f3g "Dm"afga | "Gm"d4 "C7"c2de |
y2 \
| "Dm"fdgf "C"ecfe | "Dm"dcAc "C7"defg | "F"a2A2 "Bb"BAGF | "C7"A2G2 "F"F2 |]
%%center Book19/19011-Johnny_in_the_Nether_Mains-1.abc

%%sep 1 1 500
%%sep 1 1 500

